X:1
T: Mrs Colquhoun Grant
C:I. Cooper
R:Strathspey
Q: 128
K:Bb
M:4/4
L:1/16
|:B3F Bd3 c3F ce3|d3f edcB Ac3 c3d|B3F Bd3 c3F ce3|defg fedc dB3 B3d|
B3F Bd3 c3F ce3|d3f edcB Ac3 c3d|B3F Bd3 c3F ce3|defg fedc dB3 B3d|
f3B d3B gfga b3g|f3B edcB Ac3 c3d|f3B d3B gfga b3g|fgfe dedc dB3 B3d|
f3B d3B fedc B3d|Gc3 c3B dc3 c3d|BcdB cdec defd efge|fgfe dedc dB3 B4:|
